assets/images/closeButton/dialogCloseButton.svg

<svg xmlns="http://www.w3.org/2000/svg"  viewBox="0 0 50 50" width="50px" height="50px"><path d="M 25 2 C 12.309534 2 2 12.309534 2 25 C 2 37.690466 12.309534 48 25 48 C 37.690466 48 48 37.690466 48 25 C 48 12.309534 37.690466 2 25 2 z M 25 4 C 36.609534 4 46 13.390466 46 25 C 46 36.609534 36.609534 46 25 46 C 13.390466 46 4 36.609534 4 25 C 4 13.390466 13.390466 4 25 4 z M 32.990234 15.986328 A 1.0001 1.0001 0 0 0 32.292969 16.292969 L 25 23.585938 L 17.707031 16.292969 A 1.0001 1.0001 0 0 0 16.990234 15.990234 A 1.0001 1.0001 0 0 0 16.292969 17.707031 L 23.585938 25 L 16.292969 32.292969 A 1.0001 1.0001 0 1 0 17.707031 33.707031 L 25 26.414062 L 32.292969 33.707031 A 1.0001 1.0001 0 1 0 33.707031 32.292969 L 26.414062 25 L 33.707031 17.707031 A 1.0001 1.0001 0 0 0 32.990234 15.986328 z"/></svg>

<svg xmlns="http://www.w3.org/2000/svg" width="50" height="50"><path d="M25 2C12.31 2 2 12.31 2 25s10.31 23 23 23 23-10.31 23-23S37.69 2 25 2m0 2c11.61 0 21 9.39 21 21s-9.39 21-21 21S4 36.61 4 25 13.39 4 25 4m7.99 11.986a1 1 0 0 0-.697.307L25 23.586l-7.293-7.293a1 1 0 0 0-.717-.303 1 1 0 0 0-.697 1.717L23.586 25l-7.293 7.293a1 1 0 1 0 1.414 1.414L25 26.414l7.293 7.293a1 1 0 1 0 1.414-1.414L26.414 25l7.293-7.293a1 1 0 0 0-.717-1.72"/></svg>
